(Exported by FreeCAD)
(Post Processor: grbl_post)
(Output Time:2022-09-04 13:50:16.606219)
(Begin preamble)
G17 G90
G21
(Begin operation: G54)
(Path: G54)
G54
G0 Z7.500
(Finish operation: G54)
(Begin operation: 0.9mm_Drill001)
(Path: 0.9mm_Drill001)
(0.9mm_Drill001)
(Begin toolchange)
( M6 T2 )
(Finish operation: 0.9mm_Drill001)
(Begin operation: Drilling)
(Path: Drilling)
(Drilling)
(Begin Drilling)
G0 Z7.500
G90
( G99 )
G0 X0.000 Y1.500
G0 Z5.500
(G81 X0.000 Y1.500 Z-3.000 R2.500)
G0 X0.000 Y1.500
G1 Z2.500 F0.00
G1 Z-3.000 F0.00
G0 Z2.500
G0 X-2.540 Y1.500
G0 Z5.500
(G81 X-2.540 Y1.500 Z-3.000 R2.500)
G0 X-2.540 Y1.500
G1 Z2.500 F0.00
G1 Z-3.000 F0.00
G0 Z2.500
G0 X-5.080 Y1.500
G0 Z5.500
(G81 X-5.080 Y1.500 Z-3.000 R2.500)
G0 X-5.080 Y1.500
G1 Z2.500 F0.00
G1 Z-3.000 F0.00
G0 Z2.500
G0 X2.540 Y1.500
G0 Z5.500
(G81 X2.540 Y1.500 Z-3.000 R2.500)
G0 X2.540 Y1.500
G1 Z2.500 F0.00
G1 Z-3.000 F0.00
G0 Z2.500
G0 X5.080 Y1.500
G0 Z5.500
(G81 X5.080 Y1.500 Z-3.000 R2.500)
G0 X5.080 Y1.500
G1 Z2.500 F0.00
G1 Z-3.000 F0.00
G0 Z2.500
( G80 )
G0 Z5.500
G0 Z7.500
(Finish operation: Drilling)
(Begin postamble)
M5
G17 G90
M2
