;FLAVOR:Marlin
;TIME:8783
;Filament used: 6.0204m
;Layer height: 0.2
;MINX:71.25
;MINY:37.862
;MINZ:0.2
;MAXX:228.75
;MAXY:114.862
;MAXZ:12.8
;Generated with Cura_SteamEngine 4.13.1
M140 S50
M105
M190 S50
M104 S220
M105
M109 S220
M82 ;absolute extrusion mode
M201 X500.00 Y500.00 Z100.00 E5000.00 ;Setup machine max acceleration
M203 X500.00 Y500.00 Z10.00 E50.00 ;Setup machine max feedrate
M204 P500.00 R1000.00 T500.00 ;Setup Print/Retract/Travel acceleration
M205 X8.00 Y8.00 Z0.40 E5.00 ;Setup Jerk
M220 S100 ;Reset Feedrate
M221 S100 ;Reset Flowrate

G28 ;Home
G29 ; auto bed leveling

G92 E0 ;Reset Extruder
G1 Z2.0 F3000 ;Move Z Axis up
G1 X10.1 Y20 Z0.28 F5000.0 ;Move to start position
G1 X10.1 Y200.0 Z0.28 F1500.0 E15 ;Draw the first line
G1 X10.4 Y200.0 Z0.28 F5000.0 ;Move to side a little
G1 X10.4 Y20 Z0.28 F1500.0 E30 ;Draw the second line
G92 E0 ;Reset Extruder
G1 Z2.0 F3000 ;Move Z Axis up
G92 E0
G92 E0
G1 F1500 E-6.5
;LAYER_COUNT:64
;LAYER:0
M107
G0 F6000 X72.742 Y43.355 Z0.2
;TYPE:SKIRT
G1 F1500 E0
G1 F1200 X73.246 Y42.565 E0.03117
G1 X73.816 Y41.82 E0.06237
G1 X74.448 Y41.126 E0.09359
G1 X75.136 Y40.489 E0.12477
G1 X75.876 Y39.913 E0.15596
G1 X76.662 Y39.401 E0.18716
G1 X77.489 Y38.959 E0.21835
G1 X78.351 Y38.589 E0.24955
G1 X79.241 Y38.293 E0.28074
G1 X80.153 Y38.075 E0.31193
G1 X81.08 Y37.934 E0.34312
G1 X81.951 Y37.875 E0.37216
G1 X82.272 Y37.866 E0.38284
G1 X82.58 Y37.862 E0.39308
G1 X217.043 Y37.862 E4.86534
G1 X217.899 Y37.873 E4.89381
G1 X218.835 Y37.927 E4.92499
G1 X219.763 Y38.059 E4.95617
G1 X220.677 Y38.271 E4.98738
G1 X221.569 Y38.56 E5.01856
G1 X222.434 Y38.923 E5.04976
G1 X223.264 Y39.359 E5.08095
G1 X224.055 Y39.864 E5.11216
G1 X224.799 Y40.435 E5.14335
G1 X225.492 Y41.067 E5.17455
G1 X226.129 Y41.755 E5.20573
G1 X226.704 Y42.496 E5.23693
G1 X227.215 Y43.282 E5.26811
G1 X227.657 Y44.11 E5.29933
G1 X228.026 Y44.972 E5.33052
G1 X228.321 Y45.862 E5.3617
G1 X228.539 Y46.774 E5.39289
G1 X228.679 Y47.702 E5.4241
G1 X228.737 Y48.563 E5.4528
G1 X228.746 Y48.883 E5.46345
G1 X228.75 Y49.192 E5.47373
G1 X228.749 Y103.262 E7.27211
G1 X228.74 Y103.989 E7.29629
G1 X228.689 Y104.926 E7.3275
G1 X228.557 Y105.854 E7.35868
G1 X228.348 Y106.768 E7.38986
G1 X228.061 Y107.661 E7.42106
G1 X227.699 Y108.527 E7.45228
G1 X227.265 Y109.358 E7.48346
G1 X226.761 Y110.149 E7.51465
G1 X226.192 Y110.894 E7.54583
G1 X225.561 Y111.589 E7.57705
G1 X224.874 Y112.227 E7.60824
G1 X224.135 Y112.804 E7.63942
G1 X223.349 Y113.316 E7.67062
G1 X222.523 Y113.759 E7.7018
G1 X221.661 Y114.131 E7.73302
G1 X220.772 Y114.427 E7.76419
G1 X219.86 Y114.647 E7.79539
G1 X218.933 Y114.788 E7.82658
G1 X218.049 Y114.849 E7.85605
G1 X217.728 Y114.858 E7.86673
G1 X217.42 Y114.862 E7.87697
G1 X82.815 Y114.861 E12.35395
G1 X82.117 Y114.852 E12.37717
G1 X81.181 Y114.8 E12.40835
G1 X80.252 Y114.668 E12.43956
G1 X79.338 Y114.458 E12.47075
G1 X78.445 Y114.171 E12.50195
G1 X77.58 Y113.808 E12.53315
G1 X76.749 Y113.374 E12.56433
G1 X75.958 Y112.87 E12.59553
G1 X75.213 Y112.3 E12.62673
G1 X74.519 Y111.669 E12.65792
G1 X73.882 Y110.982 E12.68908
G1 X73.305 Y110.242 E12.72029
G1 X72.793 Y109.456 E12.75149
G1 X72.35 Y108.629 E12.7827
G1 X71.979 Y107.768 E12.81388
G1 X71.683 Y106.878 E12.84508
G1 X71.464 Y105.966 E12.87627
G1 X71.323 Y105.039 E12.90746
G1 X71.263 Y104.15 E12.93709
G1 X71.254 Y103.817 E12.94817
G1 X71.25 Y103.52 E12.95805
G1 X71.251 Y49.387 E14.75852
G1 X71.26 Y48.722 E14.78064
G1 X71.313 Y47.786 E14.81182
G1 X71.445 Y46.857 E14.84303
G1 X71.656 Y45.943 E14.87423
G1 X71.944 Y45.051 E14.90541
G1 X72.307 Y44.186 E14.93661
G1 X72.742 Y43.355 E14.96781
G0 F6000 X73.139 Y43.468
G1 F1200 X73.642 Y42.697 E14.99842
G1 X74.211 Y41.973 E15.02905
G1 X74.839 Y41.301 E15.05964
G1 X75.524 Y40.685 E15.09028
G1 X76.26 Y40.132 E15.1209
G1 X77.041 Y39.644 E15.15153
G1 X77.861 Y39.226 E15.18215
G1 X78.715 Y38.881 E15.21278
G1 X79.595 Y38.611 E15.2434
G1 X80.495 Y38.419 E15.274
G1 X81.409 Y38.305 E15.30464
G1 X81.962 Y38.275 E15.32306
G1 X82.283 Y38.266 E15.33374
G1 X82.58 Y38.262 E15.34362
G1 X217.043 Y38.262 E19.81588
G1 X217.893 Y38.273 E19.84415
G1 X218.812 Y38.326 E19.87477
G1 X219.723 Y38.459 E19.90539
G1 X220.619 Y38.67 E19.936
G1 X221.493 Y38.958 E19.96661
G1 X222.34 Y39.321 E19.99726
G1 X223.151 Y39.756 E20.02787
G1 X223.921 Y40.26 E20.05848
G1 X224.645 Y40.829 E20.08911
G1 X225.317 Y41.459 E20.11974
G1 X225.932 Y42.144 E20.15036
G1 X226.485 Y42.88 E20.18098
G1 X226.972 Y43.661 E20.21159
G1 X227.389 Y44.482 E20.24222
G1 X227.734 Y45.336 E20.27285
G1 X228.003 Y46.216 E20.30346
G1 X228.195 Y47.117 E20.3341
G1 X228.308 Y48.03 E20.3647
G1 X228.337 Y48.574 E20.38282
G1 X228.346 Y48.894 E20.39346
G1 X228.35 Y49.192 E20.40338
G1 X228.349 Y103.257 E22.20159
G1 X228.34 Y103.984 E22.22577
G1 X228.289 Y104.903 E22.25638
G1 X228.158 Y105.815 E22.28703
G1 X227.948 Y106.711 E22.31763
G1 X227.662 Y107.586 E22.34825
G1 X227.301 Y108.433 E22.37888
G1 X226.867 Y109.245 E22.4095
G1 X226.365 Y110.017 E22.44013
G1 X225.797 Y110.742 E22.47076
G1 X225.169 Y111.415 E22.50138
G1 X224.485 Y112.031 E22.53199
G1 X223.75 Y112.585 E22.5626
G1 X222.97 Y113.074 E22.59322
G1 X222.15 Y113.493 E22.62385
G1 X221.297 Y113.839 E22.65447
G1 X220.417 Y114.11 E22.68509
G1 X219.517 Y114.303 E22.71571
G1 X218.603 Y114.418 E22.74635
G1 X218.038 Y114.449 E22.76517
G1 X217.717 Y114.458 E22.77585
G1 X217.42 Y114.462 E22.78573
G1 X82.82 Y114.461 E27.26254
G1 X82.122 Y114.452 E27.28576
G1 X81.203 Y114.4 E27.31637
G1 X80.292 Y114.269 E27.34698
G1 X79.396 Y114.059 E27.37759
G1 X78.521 Y113.772 E27.40822
G1 X77.674 Y113.41 E27.43886
G1 X76.862 Y112.976 E27.46948
G1 X76.091 Y112.474 E27.50008
G1 X75.366 Y111.906 E27.53071
G1 X74.693 Y111.277 E27.56135
G1 X74.078 Y110.593 E27.59195
G1 X73.524 Y109.858 E27.62256
G1 X73.036 Y109.077 E27.65319
G1 X72.617 Y108.257 E27.68382
G1 X72.271 Y107.404 E27.71443
G1 X72.001 Y106.524 E27.74505
G1 X71.808 Y105.623 E27.77569
G1 X71.694 Y104.71 E27.8063
G1 X71.663 Y104.139 E27.82532
G1 X71.654 Y103.806 E27.8364
G1 X71.65 Y103.52 E27.84591
G1 X71.651 Y49.393 E29.64618
G1 X71.66 Y48.728 E29.6683
G1 X71.712 Y47.808 E29.69895
G1 X71.844 Y46.897 E29.72957
G1 X72.055 Y46.001 E29.76018
G1 X72.342 Y45.126 E29.79081
G1 X72.705 Y44.28 E29.82143
G1 X73.139 Y43.468 E29.85205
G0 F6000 X73.536 Y43.584
G1 F1200 X74.038 Y42.833 E29.8821
G1 X74.605 Y42.129 E29.91216
G1 X75.231 Y41.479 E29.94218
G1 X75.912 Y40.886 E29.97221
G1 X76.644 Y40.356 E30.00227
G1 X77.419 Y39.893 E30.03229
G1 X78.232 Y39.5 E30.06233
G1 X79.077 Y39.18 E30.09238
G1 X79.946 Y38.937 E30.12239
G1 X80.834 Y38.771 E30.15244
G1 X81.973 Y38.675 E30.19046
G1 X82.294 Y38.666 E30.20114
G1 X82.58 Y38.662 E30.21065
G1 X217.043 Y38.662 E34.68291
G1 X217.887 Y38.673 E34.71098
G1 X218.789 Y38.726 E34.74104
G1 X219.682 Y38.858 E34.77106
G1 X220.56 Y39.069 E34.80109
G1 X221.416 Y39.357 E34.83113
G1 X222.243 Y39.719 E34.86116
G1 X223.035 Y40.154 E34.89121
G1 X223.786 Y40.656 E34.92126
G1 X224.489 Y41.223 E34.9513
G1 X225.139 Y41.85 E34.98133
G1 X225.731 Y42.532 E35.01137
G1 X226.261 Y43.263 E35.0414
G1 X226.723 Y44.039 E35.07144
G1 X227.116 Y44.852 E35.10147
G1 X227.434 Y45.697 E35.1315
G1 X227.677 Y46.567 E35.16155
G1 X227.842 Y47.455 E35.19159
G1 X227.937 Y48.585 E35.2293
G1 X227.946 Y48.905 E35.23995
G1 X227.95 Y49.192 E35.2495
G1 X227.949 Y103.252 E37.04754
G1 X227.94 Y103.979 E37.07172
G1 X227.889 Y104.881 E37.10177
G1 X227.758 Y105.775 E37.13182
G1 X227.549 Y106.653 E37.16184
G1 X227.263 Y107.51 E37.19189
G1 X226.902 Y108.338 E37.22193
G1 X226.47 Y109.13 E37.25194
G1 X225.969 Y109.882 E37.28199
G1 X225.403 Y110.586 E37.31204
G1 X224.778 Y111.237 E37.34205
G1 X224.097 Y111.831 E37.37211
G1 X223.366 Y112.362 E37.40216
G1 X222.592 Y112.826 E37.43218
G1 X221.779 Y113.22 E37.46222
G1 X220.935 Y113.54 E37.49225
G1 X220.065 Y113.785 E37.52231
G1 X219.178 Y113.951 E37.55232
G1 X218.027 Y114.049 E37.59074
G1 X217.706 Y114.058 E37.60142
G1 X217.42 Y114.062 E37.61094
G1 X82.825 Y114.061 E42.08758
G1 X82.127 Y114.052 E42.1108
G1 X81.226 Y114.001 E42.14082
G1 X80.332 Y113.869 E42.17087
G1 X79.454 Y113.66 E42.20089
G1 X78.597 Y113.373 E42.23095
G1 X77.77 Y113.012 E42.26096
G1 X76.977 Y112.579 E42.29102
G1 X76.226 Y112.078 E42.32104
G1 X75.522 Y111.512 E42.35109
G1 X74.871 Y110.886 E42.38113
G1 X74.278 Y110.205 E42.41116
G1 X73.748 Y109.474 E42.44119
G1 X73.284 Y108.699 E42.47123
G1 X72.89 Y107.886 E42.50128
G1 X72.57 Y107.042 E42.5313
G1 X72.326 Y106.172 E42.56136
G1 X72.16 Y105.284 E42.5914
G1 X72.063 Y104.129 E42.62995
G1 X72.054 Y103.796 E42.64103
G1 X72.05 Y103.52 E42.65021
G1 X72.051 Y49.398 E44.45032
G1 X72.06 Y48.733 E44.47244
G1 X72.112 Y47.831 E44.50249
G1 X72.244 Y46.938 E44.53251
G1 X72.454 Y46.06 E44.56254
G1 X72.741 Y45.203 E44.5926
G1 X73.103 Y44.376 E44.62263
G1 X73.536 Y43.584 E44.65265
G1 F1500 E38.15265
;MESH:Huiskamer en Tessa cover for the master module.stl
G0 F6000 X91.366 Y74.699
G0 X90.68 Y73.411
G0 X89.567 Y75.041
G0 X89.289 Y75.935
G0 X89.302 Y76.87
G0 X89.605 Y77.757
G0 X90.173 Y78.512
G0 X90.931 Y79.045
G0 X91.735 Y79.295
G0 X93.266 Y79.347
;TYPE:WALL-INNER
G1 F1500 E44.65265
G1 F1200 X93.729 Y79.144 E44.66946
G1 X94.144 Y78.881 E44.6858
G1 X94.51 Y78.561 E44.70197
G1 X94.825 Y78.18 E44.71842
G1 X95.078 Y77.755 E44.73487
G1 X95.261 Y77.295 E44.75133
G1 X95.37 Y76.813 E44.76777
G1 X95.402 Y76.318 E44.78427
G1 X95.356 Y75.827 E44.80067
G1 X95.234 Y75.346 E44.81717
G1 X95.038 Y74.894 E44.83356
G1 X94.773 Y74.474 E44.85008
G1 X94.439 Y74.096 E44.86685
G1 X94.058 Y73.782 E44.88328
G1 X93.641 Y73.535 E44.8994
G1 X93.173 Y73.35 E44.91613
G1 X92.699 Y73.243 E44.93229
G1 X92.197 Y73.212 E44.94902
G1 X91.705 Y73.258 E44.96546
G1 X91.234 Y73.378 E44.98162
G1 X90.77 Y73.58 E44.99846
G1 X90.355 Y73.845 E45.01483
G1 X89.99 Y74.164 E45.03096
G1 X89.675 Y74.545 E45.0474
G1 X89.422 Y74.97 E45.06385
G1 X89.239 Y75.43 E45.08032
G1 X89.13 Y75.912 E45.09675
G1 X89.098 Y76.406 E45.11322
G1 X89.144 Y76.898 E45.12965
G1 X89.266 Y77.379 E45.14616
G1 X89.462 Y77.833 E45.1626
G1 X89.727 Y78.25 E45.17904
G1 X90.061 Y78.628 E45.19581
G1 X90.442 Y78.943 E45.21226
G1 X90.859 Y79.19 E45.22838
G1 X91.327 Y79.375 E45.24511
G1 X91.801 Y79.482 E45.26128
G1 X92.304 Y79.513 E45.27804
G1 X92.795 Y79.466 E45.29444
G1 X93.266 Y79.347 E45.3106
G0 F6000 X93.136 Y78.967
;TYPE:WALL-OUTER
G1 F1200 X93.541 Y78.79 E45.3253
G1 X93.904 Y78.56 E45.33959
G1 X94.222 Y78.281 E45.35366
G1 X94.497 Y77.949 E45.368
G1 X94.718 Y77.578 E45.38237
G1 X94.878 Y77.176 E45.39676
G1 X94.973 Y76.756 E45.41108
G1 X95.001 Y76.324 E45.42548
G1 X94.961 Y75.895 E45.43981
G1 X94.854 Y75.476 E45.45419
G1 X94.683 Y75.081 E45.46851
G1 X94.452 Y74.715 E45.4829
G1 X94.16 Y74.385 E45.49756
G1 X93.827 Y74.11 E45.51192
G1 X93.464 Y73.895 E45.52595
G1 X93.055 Y73.733 E45.54059
G1 X92.642 Y73.64 E45.55467
G1 X92.203 Y73.613 E45.5693
G1 X91.774 Y73.653 E45.58363
G1 X91.364 Y73.758 E45.5977
G1 X90.959 Y73.934 E45.61239
G1 X90.596 Y74.166 E45.62672
G1 X90.278 Y74.444 E45.64077
G1 X90.003 Y74.776 E45.65511
G1 X89.782 Y75.147 E45.66947
G1 X89.622 Y75.549 E45.68386
G1 X89.527 Y75.969 E45.69818
G1 X89.499 Y76.4 E45.71255
G1 X89.539 Y76.83 E45.72691
G1 X89.646 Y77.249 E45.74129
G1 X89.817 Y77.645 E45.75564
G1 X90.048 Y78.009 E45.76998
G1 X90.34 Y78.34 E45.78466
G1 X90.673 Y78.615 E45.79902
G1 X91.036 Y78.83 E45.81306
G1 X91.445 Y78.992 E45.82769
G1 X91.858 Y79.085 E45.84177
G1 X92.297 Y79.112 E45.8564
G1 X92.726 Y79.071 E45.87073
G1 X93.136 Y78.967 E45.8848
G0 F6000 X93.278 Y79.383
G1 F1500 E39.3848
G0 F6000 X94.981 Y78.29
G0 X93.788 Y77.449
G0 X179.077 Y54.027
G0 X179.077 Y52.592
G0 X177.322 Y52.934
G0 X177.15 Y55.962
;TYPE:WALL-INNER
G1 F1500 E45.8848
G1 F1200 X210.35 Y55.962 E46.98903
G1 X210.35 Y52.762 E47.09547
G1 X177.15 Y52.762 E48.1997
G1 X177.15 Y55.962 E48.30614
G0 F6000 X177.55 Y55.562
;TYPE:WALL-OUTER
G1 F1200 X209.95 Y55.562 E49.38376
G1 X209.95 Y53.162 E49.46359
G1 X177.55 Y53.162 E50.54122
G1 X177.55 Y55.562 E50.62104
G1 F1500 E44.12104
G0 F6000 X177.25 Y55.562
G0 X177.15 Y56.152
G0 X177.15 Y57.072
G0 X177.15 Y59.962
;TYPE:WALL-INNER
G1 F1500 E50.62104
G1 F1200 X210.35 Y59.962 E51.72528
G1 X210.35 Y57.262 E51.81508
G1 X177.15 Y57.262 E52.91932
G1 X177.15 Y59.962 E53.00912
G0 F6000 X177.55 Y59.562
;TYPE:WALL-OUTER
G1 F1200 X209.95 Y59.562 E54.08675
G1 X209.95 Y57.662 E54.14994
G1 X177.55 Y57.662 E55.22757
G1 X177.55 Y59.562 E55.29076
G1 F1500 E48.79076
G0 F6000 X177.25 Y59.562
G0 X177.15 Y60.152
G0 X177.15 Y61.072
G0 X177.15 Y64.462
;TYPE:WALL-INNER
G1 F1500 E55.29076
G1 F1200 X210.35 Y64.462 E56.395
G1 X210.35 Y61.262 E56.50143
G1 X177.15 Y61.262 E57.60567
G1 X177.15 Y64.462 E57.7121
G0 F6000 X177.55 Y64.062
;TYPE:WALL-OUTER
G1 F1200 X209.95 Y64.062 E58.78973
G1 X209.95 Y61.662 E58.86956
G1 X177.55 Y61.662 E59.94718
G1 X177.55 Y64.062 E60.02701
G1 F1500 E53.52701
G0 F6000 X177.25 Y64.062
G0 X177.322 Y61.434
G0 X179.077 Y61.092
G0 X179.077 Y62.527
G0 X176.954 Y74.527
G0 X176.954 Y73.072
G0 X157.322 Y73.434
G0 X157.15 Y76.462
;TYPE:WALL-INNER
G1 F1500 E60.02701
G1 F1200 X178.35 Y76.462 E60.73212
G1 X178.35 Y73.262 E60.83856
G1 X157.15 Y73.262 E61.54367
G1 X157.15 Y76.462 E61.6501
G0 F6000 X157.55 Y76.062
;TYPE:WALL-OUTER
G1 F1200 X177.95 Y76.062 E62.32861
G1 X177.95 Y73.662 E62.40843
G1 X157.55 Y73.662 E63.08694
G1 X157.55 Y76.062 E63.16676
G1 F1500 E56.66676
G0 F6000 X157.25 Y76.062
G0 X157.15 Y76.652
G0 X157.15 Y78.072
G0 X157.15 Y80.962
;TYPE:WALL-INNER
G1 F1500 E63.16676
G1 F1200 X178.35 Y80.962 E63.87188
G1 X178.35 Y78.262 E63.96168
G1 X157.15 Y78.262 E64.6668
G1 X157.15 Y80.962 E64.7566
G0 F6000 X157.55 Y80.562
;TYPE:WALL-OUTER
G1 F1200 X177.95 Y80.562 E65.43511
G1 X177.95 Y78.662 E65.4983
G1 X157.55 Y78.662 E66.17681
G1 X157.55 Y80.562 E66.24
G1 F1500 E59.74
G0 F6000 X157.25 Y80.562
G0 X157.15 Y81.152
G0 X157.15 Y81.572
G0 X157.15 Y84.462
;TYPE:WALL-INNER
G1 F1500 E66.24
G1 F1200 X178.35 Y84.462 E66.94512
G1 X178.35 Y81.762 E67.03492
G1 X157.15 Y81.762 E67.74003
G1 X157.15 Y84.462 E67.82984
G0 F6000 X157.55 Y84.062
;TYPE:WALL-OUTER
G1 F1200 X177.95 Y84.062 E68.50834
G1 X177.95 Y82.162 E68.57154
G1 X157.55 Y82.162 E69.25004
G1 X157.55 Y84.062 E69.31324
G1 F1500 E62.81324
G0 F6000 X157.25 Y84.062
G0 X157.15 Y84.652
G0 X157.15 Y86.072
G0 X157.15 Y89.462
;TYPE:WALL-INNER
G1 F1500 E69.31324
G1 F1200 X178.35 Y89.462 E70.01835
G1 X178.35 Y86.262 E70.12478
G1 X157.15 Y86.262 E70.8299
G1 X157.15 Y89.462 E70.93633
G0 F6000 X157.55 Y89.062
;TYPE:WALL-OUTER
G1 F1200 X177.95 Y89.062 E71.61484
G1 X177.95 Y86.662 E71.69466
G1 X157.55 Y86.662 E72.37317
G1 X157.55 Y89.062 E72.45299
G1 F1500 E65.95299
G0 F6000 X157.25 Y89.062
G0 X159.327 Y89.632
G0 X159.327 Y88.197
G0 X178.546 Y104.527
G0 X178.546 Y103.052
G0 X217.15 Y103.262
;TYPE:WALL-INNER
G1 F1500 E72.45299
G1 F1200 X82.85 Y103.262 E76.91983
G1 X82.85 Y49.462 E78.70923
G1 X217.15 Y49.462 E83.17606
G1 X217.15 Y103.262 E84.96546
G0 F6000 X217.55 Y103.662
;TYPE:WALL-OUTER
G1 F1200 X82.45 Y103.662 E89.4589
G1 X82.45 Y49.062 E91.2749
G1 X217.55 Y49.062 E95.76835
G1 X217.55 Y103.662 E97.58435
G0 F6000 X217.28 Y103.392
G0 X217.04 Y102.872
G0 X216.76 Y102.872
;TYPE:SKIN
G1 F1200 X83.24 Y102.872 E102.02525
G1 X83.24 Y49.852 E103.7887
G1 X216.76 Y49.852 E108.22959
G1 X216.76 Y102.872 E109.99304
G1 F1500 E103.49304
G0 F6000 X217.04 Y102.872
G0 X216.94 Y64.602
G0 X218.415 Y64.602
G0 X209.097 Y63.209
G0 X210.54 Y64.602
G1 F1500 E109.99304
G0 F6000 X210.74 Y64.852
G1 F1200 X210.74 Y60.872 E110.12542
G1 X176.76 Y60.872 E111.2556
G1 X176.76 Y64.852 E111.38797
G1 X210.74 Y64.852 E112.51815
G1 F1500 E106.01815
G0 F6000 X210.46 Y64.602
G0 X210.46 Y61.072
G0 X210.46 Y60.152
G1 F1500 E112.51815
G0 F6000 X210.74 Y60.352
G1 F1200 X210.74 Y56.872 E112.6339
G1 X176.76 Y56.872 E113.76408
G1 X176.76 Y60.352 E113.87982
G1 X210.74 Y60.352 E115.01
G1 F1500 E108.51
G0 F6000 X210.46 Y60.102
G0 X210.46 Y57.072
G0 X210.46 Y56.152
G1 F1500 E115.01
G0 F6000 X210.74 Y56.352
G1 F1200 X210.74 Y52.372 E115.14238
G1 X176.76 Y52.372 E116.27256
G1 X176.76 Y56.352 E116.40493
G1 X210.74 Y56.352 E117.53511
G1 F1500 E111.03511
G0 F6000 X210.46 Y56.102
G0 X178.46 Y56.152
