;FLAVOR:Marlin
;TIME:30534
;Filament used: 18.6537m
;Layer height: 0.2
;MINX:38.625
;MINY:55
;MINZ:0.2
;MAXX:260.625
;MAXY:188.5
;MAXZ:16.6
;Generated with Cura_SteamEngine 4.13.1
M140 S50
M105
M190 S50
M104 S220
M105
M109 S220
M82 ;absolute extrusion mode
M201 X500.00 Y500.00 Z100.00 E5000.00 ;Setup machine max acceleration
M203 X500.00 Y500.00 Z10.00 E50.00 ;Setup machine max feedrate
M204 P500.00 R1000.00 T500.00 ;Setup Print/Retract/Travel acceleration
M205 X8.00 Y8.00 Z0.40 E5.00 ;Setup Jerk
M220 S100 ;Reset Feedrate
M221 S100 ;Reset Flowrate

G28 ;Home
G29 ; auto bed leveling

G92 E0 ;Reset Extruder
G1 Z2.0 F3000 ;Move Z Axis up
G1 X10.1 Y20 Z0.28 F5000.0 ;Move to start position
G1 X10.1 Y200.0 Z0.28 F1500.0 E15 ;Draw the first line
G1 X10.4 Y200.0 Z0.28 F5000.0 ;Move to side a little
G1 X10.4 Y20 Z0.28 F1500.0 E30 ;Draw the second line
G92 E0 ;Reset Extruder
G1 Z2.0 F3000 ;Move Z Axis up
G92 E0
G92 E0
G1 F1500 E-6.5
;LAYER_COUNT:83
;LAYER:0
M107
G0 F6000 X54.469 Y58.241 Z0.2
;TYPE:SKIRT
G1 F1500 E0
G1 F1200 X55.159 Y57.606 E0.03119
G1 X55.901 Y57.031 E0.06241
G1 X56.688 Y56.523 E0.09357
G1 X57.517 Y56.083 E0.12478
G1 X58.379 Y55.715 E0.15596
G1 X59.27 Y55.422 E0.18715
G1 X60.183 Y55.206 E0.21836
G1 X61.111 Y55.069 E0.24956
G1 X61.947 Y55.013 E0.27742
G1 X62.266 Y55.004 E0.28804
G1 X62.576 Y55 E0.29835
G1 X237.039 Y55 E6.10101
G1 X237.895 Y55.011 E6.12949
G1 X238.831 Y55.065 E6.16067
G1 X239.759 Y55.197 E6.19184
G1 X240.673 Y55.409 E6.22305
G1 X241.565 Y55.698 E6.25424
G1 X242.43 Y56.061 E6.28544
G1 X243.26 Y56.497 E6.31662
G1 X244.051 Y57.002 E6.34783
G1 X244.795 Y57.573 E6.37903
G1 X245.488 Y58.205 E6.41022
G1 X246.125 Y58.893 E6.44141
G1 X246.7 Y59.634 E6.4726
G1 X247.211 Y60.42 E6.50379
G1 X247.653 Y61.248 E6.535
G1 X248.022 Y62.11 E6.56619
G1 X248.317 Y63 E6.59737
G1 X248.535 Y63.912 E6.62856
G1 X248.675 Y64.84 E6.65978
G1 X248.733 Y65.701 E6.68848
G1 X248.742 Y66.021 E6.69913
G1 X248.746 Y66.33 E6.7094
G1 X248.746 Y75.152 E7.00283
G1 X248.783 Y77.76 E7.08958
G1 X248.89 Y80.281 E7.1735
G1 X249.067 Y82.776 E7.25669
G1 X249.315 Y85.276 E7.34025
G1 X249.634 Y87.769 E7.42385
G1 X250.025 Y90.262 E7.50778
G1 X250.488 Y92.752 E7.59201
G1 X251.018 Y95.216 E7.67584
G1 X251.607 Y97.618 E7.7581
G1 X252.283 Y100.074 E7.84282
G1 X253.019 Y102.48 E7.92651
G1 X253.828 Y104.876 E8.01062
G1 X254.691 Y107.216 E8.09357
G1 X255.637 Y109.572 E8.17801
G1 X256.637 Y111.87 E8.26137
G1 X257.711 Y114.162 E8.34556
G1 X258.901 Y116.522 E8.43346
G1 X259.359 Y117.397 E8.46631
G1 X259.758 Y118.246 E8.49751
G1 X260.083 Y119.126 E8.52871
G1 X260.353 Y120.121 E8.563
G1 X260.517 Y121.044 E8.59418
G1 X260.61 Y122.167 E8.63166
G1 X260.62 Y122.49 E8.64241
G1 X260.625 Y122.83 E8.65372
G1 X260.624 Y176.9 E10.4521
G1 X260.615 Y177.627 E10.47628
G1 X260.564 Y178.564 E10.50749
G1 X260.432 Y179.492 E10.53867
G1 X260.223 Y180.406 E10.56985
G1 X259.936 Y181.299 E10.60105
G1 X259.574 Y182.165 E10.63227
G1 X259.14 Y182.996 E10.66345
G1 X258.636 Y183.787 E10.69464
G1 X258.067 Y184.532 E10.72582
G1 X257.436 Y185.227 E10.75704
G1 X256.749 Y185.865 E10.78823
G1 X256.01 Y186.442 E10.81941
G1 X255.224 Y186.954 E10.85061
G1 X254.398 Y187.397 E10.88179
G1 X253.536 Y187.769 E10.91301
G1 X252.647 Y188.065 E10.94418
G1 X251.735 Y188.285 E10.97538
G1 X250.808 Y188.426 E11.00657
G1 X249.924 Y188.487 E11.03604
G1 X249.603 Y188.496 E11.04672
G1 X249.295 Y188.5 E11.05696
G1 X50.19 Y188.499 E17.67922
G1 X49.492 Y188.49 E17.70244
G1 X48.556 Y188.438 E17.73362
G1 X47.627 Y188.306 E17.76483
G1 X46.713 Y188.096 E17.79602
G1 X45.82 Y187.809 E17.82722
G1 X44.955 Y187.446 E17.85842
G1 X44.124 Y187.012 E17.8896
G1 X43.333 Y186.508 E17.9208
G1 X42.588 Y185.938 E17.952
G1 X41.894 Y185.307 E17.98319
G1 X41.257 Y184.62 E18.01435
G1 X40.68 Y183.88 E18.04556
G1 X40.168 Y183.094 E18.07676
G1 X39.725 Y182.267 E18.10797
G1 X39.354 Y181.406 E18.13915
G1 X39.058 Y180.516 E18.17035
G1 X38.839 Y179.604 E18.20154
G1 X38.698 Y178.677 E18.23273
G1 X38.638 Y177.788 E18.26236
G1 X38.629 Y177.455 E18.27344
G1 X38.625 Y177.158 E18.28332
G1 X38.626 Y123.051 E20.08293
G1 X38.636 Y122.346 E20.10638
G1 X38.689 Y121.41 E20.13756
G1 X38.822 Y120.481 E20.16877
G1 X39.034 Y119.567 E20.19998
G1 X39.322 Y118.675 E20.23116
G1 X39.686 Y117.811 E20.26234
G1 X39.958 Y117.272 E20.28242
G1 X40.517 Y116.238 E20.32152
G1 X41.725 Y113.925 E20.40831
G1 X42.812 Y111.691 E20.49094
G1 X43.868 Y109.352 E20.57629
G1 X44.832 Y107.051 E20.65927
G1 X45.733 Y104.706 E20.74282
G1 X46.579 Y102.313 E20.82724
G1 X47.347 Y99.924 E20.91071
G1 X48.042 Y97.534 E20.99349
G1 X48.684 Y95.069 E21.07821
G1 X49.256 Y92.593 E21.16273
G1 X49.74 Y90.174 E21.24478
G1 X50.168 Y87.677 E21.32905
G1 X50.525 Y85.169 E21.4133
G1 X50.808 Y82.689 E21.49632
G1 X51.022 Y80.174 E21.58028
G1 X51.164 Y77.659 E21.66406
G1 X51.237 Y75.144 E21.74774
G1 X51.246 Y73.797 E21.79255
G1 X51.246 Y66.674 E22.02946
G1 X51.259 Y65.827 E22.05763
G1 X51.314 Y64.891 E22.08882
G1 X51.449 Y63.963 E22.12001
G1 X51.663 Y63.05 E22.1512
G1 X51.953 Y62.158 E22.18239
G1 X52.319 Y61.294 E22.2136
G1 X52.756 Y60.465 E22.24477
G1 X53.263 Y59.676 E22.27596
G1 X53.835 Y58.932 E22.30718
G1 X54.469 Y58.241 E22.33837
G0 F6000 X54.86 Y58.416
G1 F1200 X55.547 Y57.803 E22.36899
G1 X56.284 Y57.252 E22.3996
G1 X57.067 Y56.767 E22.43023
G1 X57.888 Y56.351 E22.46084
G1 X58.743 Y56.008 E22.49148
G1 X59.624 Y55.741 E22.5221
G1 X60.525 Y55.551 E22.55273
G1 X61.439 Y55.441 E22.58335
G1 X61.958 Y55.413 E22.60064
G1 X62.277 Y55.404 E22.61125
G1 X62.576 Y55.4 E22.6212
G1 X237.039 Y55.4 E28.42386
G1 X237.889 Y55.411 E28.45213
G1 X238.808 Y55.464 E28.48275
G1 X239.719 Y55.597 E28.51337
G1 X240.615 Y55.808 E28.54399
G1 X241.489 Y56.096 E28.57459
G1 X242.336 Y56.459 E28.60524
G1 X243.147 Y56.894 E28.63585
G1 X243.917 Y57.398 E28.66646
G1 X244.641 Y57.967 E28.69709
G1 X245.313 Y58.597 E28.72772
G1 X245.928 Y59.282 E28.75834
G1 X246.481 Y60.018 E28.78896
G1 X246.968 Y60.799 E28.81957
G1 X247.385 Y61.62 E28.8502
G1 X247.73 Y62.474 E28.88084
G1 X247.999 Y63.354 E28.91144
G1 X248.191 Y64.255 E28.94208
G1 X248.304 Y65.168 E28.97268
G1 X248.333 Y65.712 E28.9908
G1 X248.342 Y66.032 E29.00145
G1 X248.346 Y66.33 E29.01136
G1 X248.346 Y75.158 E29.30498
G1 X248.383 Y77.783 E29.3923
G1 X248.49 Y80.291 E29.47579
G1 X248.668 Y82.811 E29.55981
G1 X248.917 Y85.326 E29.64387
G1 X249.236 Y87.815 E29.72733
G1 X249.637 Y90.367 E29.81325
G1 X250.089 Y92.798 E29.8955
G1 X250.625 Y95.29 E29.98027
G1 X251.227 Y97.747 E30.06441
G1 X251.9 Y100.192 E30.14876
G1 X252.635 Y102.592 E30.23224
G1 X253.449 Y105.006 E30.31697
G1 X254.316 Y107.356 E30.40028
G1 X255.275 Y109.744 E30.48587
G1 X256.266 Y112.021 E30.56847
G1 X257.35 Y114.333 E30.6534
G1 X258.548 Y116.709 E30.7419
G1 X259.005 Y117.583 E30.77471
G1 X259.396 Y118.416 E30.80531
G1 X259.713 Y119.281 E30.83595
G1 X259.963 Y120.208 E30.86789
G1 X260.123 Y121.114 E30.89849
G1 X260.21 Y122.179 E30.93403
G1 X260.22 Y122.502 E30.94478
G1 X260.225 Y122.83 E30.95569
G1 X260.224 Y176.895 E32.7539
G1 X260.215 Y177.622 E32.77808
G1 X260.164 Y178.541 E32.80869
G1 X260.033 Y179.453 E32.83933
G1 X259.823 Y180.349 E32.86994
G1 X259.537 Y181.224 E32.90056
G1 X259.176 Y182.071 E32.93118
G1 X258.742 Y182.883 E32.96181
G1 X258.24 Y183.655 E32.99244
G1 X257.672 Y184.38 E33.02307
G1 X257.044 Y185.053 E33.05368
G1 X256.36 Y185.669 E33.0843
G1 X255.625 Y186.223 E33.11491
G1 X254.845 Y186.712 E33.14553
G1 X254.025 Y187.131 E33.17616
G1 X253.172 Y187.477 E33.20678
G1 X252.292 Y187.748 E33.2374
G1 X251.392 Y187.941 E33.26802
G1 X250.478 Y188.056 E33.29866
G1 X249.913 Y188.087 E33.31748
G1 X249.592 Y188.096 E33.32816
G1 X249.295 Y188.1 E33.33804
G1 X50.195 Y188.099 E39.96013
G1 X49.497 Y188.09 E39.98335
G1 X48.578 Y188.038 E40.01396
G1 X47.667 Y187.907 E40.04457
G1 X46.771 Y187.697 E40.07518
G1 X45.896 Y187.41 E40.10581
G1 X45.049 Y187.048 E40.13645
G1 X44.237 Y186.614 E40.16707
G1 X43.466 Y186.112 E40.19767
G1 X42.741 Y185.544 E40.2283
G1 X42.068 Y184.915 E40.25894
G1 X41.453 Y184.231 E40.28953
G1 X40.899 Y183.496 E40.32015
G1 X40.411 Y182.715 E40.35078
G1 X39.992 Y181.895 E40.3814
G1 X39.646 Y181.042 E40.41202
G1 X39.376 Y180.162 E40.44264
G1 X39.183 Y179.261 E40.47328
G1 X39.069 Y178.348 E40.50388
G1 X39.038 Y177.777 E40.5229
G1 X39.029 Y177.444 E40.53398
G1 X39.025 Y177.158 E40.5435
G1 X39.026 Y123.057 E42.3429
G1 X39.036 Y122.352 E42.36635
G1 X39.089 Y121.433 E42.39697
G1 X39.222 Y120.521 E42.42763
G1 X39.433 Y119.625 E42.45824
G1 X39.721 Y118.751 E42.48885
G1 X40.084 Y117.905 E42.51947
G1 X40.31 Y117.462 E42.53601
G1 X40.882 Y116.403 E42.57604
G1 X42.067 Y114.134 E42.66118
G1 X43.185 Y111.836 E42.74618
G1 X44.23 Y109.522 E42.83063
G1 X45.215 Y107.172 E42.91537
G1 X46.113 Y104.835 E42.99864
G1 X46.951 Y102.462 E43.08235
G1 X47.729 Y100.042 E43.16689
G1 X48.43 Y97.632 E43.25037
G1 X49.076 Y95.15 E43.33568
G1 X49.647 Y92.677 E43.42009
G1 X50.133 Y90.248 E43.50248
G1 X50.565 Y87.729 E43.58749
G1 X50.92 Y85.234 E43.67131
G1 X51.205 Y82.732 E43.75506
G1 X51.421 Y80.194 E43.83978
G1 X51.563 Y77.694 E43.92307
G1 X51.637 Y75.111 E44.00901
G1 X51.646 Y73.8 E44.05262
G1 X51.647 Y66.499 E44.29545
G1 X51.658 Y65.834 E44.31757
G1 X51.714 Y64.915 E44.34819
G1 X51.848 Y64.004 E44.37882
G1 X52.062 Y63.108 E44.40946
G1 X52.352 Y62.235 E44.44005
G1 X52.717 Y61.389 E44.4707
G1 X53.153 Y60.579 E44.5013
G1 X53.659 Y59.809 E44.53194
G1 X54.229 Y59.087 E44.56254
G1 X54.86 Y58.416 E44.59317
G0 F6000 X55.251 Y58.596
G1 F1200 X55.934 Y58.005 E44.62321
G1 X56.667 Y57.477 E44.65326
G1 X57.444 Y57.016 E44.68331
G1 X58.258 Y56.626 E44.71333
G1 X59.104 Y56.309 E44.74338
G1 X59.974 Y56.068 E44.7734
G1 X60.862 Y55.905 E44.80343
G1 X61.969 Y55.813 E44.84038
G1 X62.288 Y55.804 E44.85099
G1 X62.576 Y55.8 E44.86057
G1 X237.039 Y55.8 E50.66323
G1 X237.883 Y55.811 E50.69131
G1 X238.785 Y55.864 E50.72136
G1 X239.678 Y55.996 E50.75138
G1 X240.556 Y56.207 E50.78142
G1 X241.412 Y56.495 E50.81146
G1 X242.239 Y56.857 E50.84148
G1 X243.031 Y57.292 E50.87154
G1 X243.782 Y57.794 E50.90158
G1 X244.485 Y58.361 E50.93162
G1 X245.135 Y58.988 E50.96166
G1 X245.727 Y59.67 E50.9917
G1 X246.257 Y60.401 E51.02173
G1 X246.719 Y61.177 E51.05177
G1 X247.112 Y61.99 E51.0818
G1 X247.43 Y62.835 E51.11183
G1 X247.673 Y63.705 E51.14187
G1 X247.838 Y64.593 E51.17191
G1 X247.933 Y65.723 E51.20963
G1 X247.942 Y66.043 E51.22028
G1 X247.946 Y66.33 E51.22982
G1 X247.946 Y75.164 E51.52364
G1 X247.983 Y77.77 E51.61033
G1 X248.092 Y80.335 E51.69572
G1 X248.27 Y82.842 E51.77931
G1 X248.521 Y85.383 E51.86424
G1 X248.842 Y87.891 E51.94833
G1 X249.236 Y90.396 E52.03267
G1 X249.698 Y92.883 E52.11681
G1 X250.239 Y95.397 E52.20234
G1 X250.838 Y97.843 E52.2861
G1 X251.511 Y100.287 E52.37041
G1 X252.256 Y102.722 E52.4551
G1 X253.067 Y105.124 E52.53942
G1 X253.957 Y107.537 E52.62497
G1 X254.883 Y109.844 E52.70765
G1 X255.915 Y112.215 E52.79365
G1 X256.988 Y114.504 E52.87774
G1 X258.207 Y116.921 E52.96777
G1 X258.65 Y117.768 E52.99956
G1 X259.033 Y118.586 E53.0296
G1 X259.342 Y119.435 E53.05965
G1 X259.572 Y120.294 E53.08923
G1 X259.729 Y121.184 E53.11929
G1 X259.81 Y122.191 E53.15289
G1 X259.82 Y122.514 E53.16364
G1 X259.825 Y122.83 E53.17415
G1 X259.824 Y176.89 E54.97219
G1 X259.815 Y177.617 E54.99638
G1 X259.764 Y178.519 E55.02642
G1 X259.633 Y179.413 E55.05648
G1 X259.424 Y180.291 E55.08649
G1 X259.138 Y181.148 E55.11654
G1 X258.777 Y181.976 E55.14659
G1 X258.345 Y182.768 E55.17659
G1 X257.844 Y183.52 E55.20665
G1 X257.278 Y184.224 E55.23669
G1 X256.653 Y184.875 E55.26671
G1 X255.972 Y185.469 E55.29676
G1 X255.241 Y186 E55.32681
G1 X254.467 Y186.464 E55.35683
G1 X253.654 Y186.858 E55.38688
G1 X252.81 Y187.178 E55.4169
G1 X251.94 Y187.423 E55.44696
G1 X251.053 Y187.589 E55.47697
G1 X249.902 Y187.687 E55.51539
G1 X249.581 Y187.696 E55.52608
G1 X249.295 Y187.7 E55.53559
G1 X50.2 Y187.699 E62.15752
G1 X49.502 Y187.69 E62.18073
G1 X48.601 Y187.639 E62.21075
G1 X47.707 Y187.507 E62.2408
G1 X46.829 Y187.298 E62.27082
G1 X45.972 Y187.011 E62.30088
G1 X45.145 Y186.65 E62.3309
G1 X44.352 Y186.217 E62.36095
G1 X43.601 Y185.716 E62.39097
G1 X42.897 Y185.15 E62.42102
G1 X42.246 Y184.524 E62.45106
G1 X41.653 Y183.843 E62.48109
G1 X41.123 Y183.112 E62.51112
G1 X40.659 Y182.337 E62.54116
G1 X40.265 Y181.524 E62.57121
G1 X39.945 Y180.68 E62.60123
G1 X39.701 Y179.81 E62.63129
G1 X39.535 Y178.922 E62.66133
G1 X39.438 Y177.767 E62.69988
G1 X39.429 Y177.434 E62.71096
G1 X39.425 Y177.158 E62.72015
G1 X39.426 Y123.062 E64.51939
G1 X39.436 Y122.357 E64.54284
G1 X39.489 Y121.456 E64.57286
G1 X39.621 Y120.562 E64.60291
G1 X39.832 Y119.684 E64.63295
G1 X40.12 Y118.828 E64.66299
G1 X40.662 Y117.652 E64.70605
G1 X41.215 Y116.63 E64.7447
G1 X42.437 Y114.287 E64.83259
G1 X43.552 Y111.997 E64.91731
G1 X44.592 Y109.693 E65.00138
G1 X45.576 Y107.345 E65.08606
G1 X46.492 Y104.963 E65.17094
G1 X47.33 Y102.59 E65.25464
G1 X48.108 Y100.171 E65.33916
G1 X48.815 Y97.74 E65.42336
G1 X49.466 Y95.24 E65.50929
G1 X50.031 Y92.794 E65.59278
G1 X50.533 Y90.288 E65.67779
G1 X50.956 Y87.817 E65.76117
G1 X51.314 Y85.304 E65.8456
G1 X51.606 Y82.74 E65.93143
G1 X51.818 Y80.252 E66.01448
G1 X51.963 Y77.691 E66.09979
G1 X52.037 Y75.126 E66.18514
G1 X52.046 Y73.803 E66.22915
G1 X52.047 Y66.505 E66.47188
G1 X52.058 Y65.84 E66.494
G1 X52.113 Y64.939 E66.52402
G1 X52.248 Y64.046 E66.55406
G1 X52.461 Y63.168 E66.58411
G1 X52.75 Y62.313 E66.61413
G1 X53.114 Y61.486 E66.64418
G1 X53.55 Y60.695 E66.67422
G1 X54.054 Y59.946 E66.70425
G1 X54.623 Y59.244 E66.7343
G1 X55.251 Y58.596 E66.76432
G1 F1500 E60.26432
;MESH:Kleine kamer Radiator fan master extension module 03.stl
G0 F6000 X186.764 Y71.525
G0 X187.906 Y71.19
G0 X206.733 Y73.479
G0 X213.594 Y74.163
G0 X212.32 Y74.892
G0 X214.064 Y76.014
;TYPE:WALL-INNER
G1 F1500 E66.76432
G1 F1200 X214.739 Y76.105 E66.78697
G1 X215.414 Y76.018 E66.80961
G1 X216.043 Y75.76 E66.83222
G1 X216.584 Y75.347 E66.85486
G1 X216.999 Y74.809 E66.87746
G1 X217.261 Y74.181 E66.90009
G1 X217.351 Y73.506 E66.92274
G1 X217.264 Y72.833 E66.94531
G1 X217.006 Y72.204 E66.96792
G1 X216.593 Y71.663 E66.99056
G1 X216.055 Y71.248 E67.01316
G1 X215.428 Y70.986 E67.03576
G1 X214.754 Y70.895 E67.05838
G1 X214.079 Y70.982 E67.08102
G1 X213.45 Y71.24 E67.10363
G1 X212.909 Y71.653 E67.12627
G1 X212.494 Y72.191 E67.14886
G1 X212.232 Y72.818 E67.17147
G1 X212.141 Y73.493 E67.19412
G1 X212.228 Y74.168 E67.21676
G1 X212.487 Y74.796 E67.23935
G1 X212.899 Y75.337 E67.26197
G1 X213.438 Y75.752 E67.28459
G1 X214.064 Y76.014 E67.30716
G0 F6000 X214.17 Y75.625
;TYPE:WALL-OUTER
G1 F1200 X214.74 Y75.702 E67.32629
G1 X215.311 Y75.628 E67.34544
G1 X215.842 Y75.41 E67.36454
G1 X216.299 Y75.061 E67.38366
G1 X216.65 Y74.606 E67.40277
G1 X216.872 Y74.076 E67.42189
G1 X216.948 Y73.505 E67.44105
G1 X216.874 Y72.936 E67.46013
G1 X216.656 Y72.405 E67.47922
G1 X216.307 Y71.948 E67.49835
G1 X215.852 Y71.597 E67.51746
G1 X215.322 Y71.375 E67.53657
G1 X214.753 Y71.298 E67.55567
G1 X214.182 Y71.372 E67.57482
G1 X213.651 Y71.59 E67.59391
G1 X213.194 Y71.939 E67.61304
G1 X212.843 Y72.394 E67.63215
G1 X212.621 Y72.924 E67.65126
G1 X212.544 Y73.494 E67.67039
G1 X212.618 Y74.064 E67.68951
G1 X212.837 Y74.595 E67.70861
G1 X213.185 Y75.052 E67.72772
G1 X213.641 Y75.403 E67.74686
G1 X214.17 Y75.625 E67.76594
G0 F6000 X214.055 Y76.049
G1 F1500 E61.26594
G0 F6000 X214.738 Y76.297
G0 X214.741 Y74.83
G0 X214.745 Y81.366
G0 X215.171 Y104.785
G0 X214.763 Y105.581
G0 X214.769 Y112.169
G0 X214.786 Y110.702
G0 X213.114 Y111.821
G0 X212.734 Y112.301
G0 X212.493 Y112.863
G0 X212.404 Y113.467
G0 X212.475 Y114.075
G0 X212.703 Y114.643
G0 X212.998 Y115.039
G0 X214.037 Y116.007
;TYPE:WALL-INNER
G1 F1500 E67.76594
G1 F1200 X214.71 Y116.105 E67.78856
G1 X215.386 Y116.026 E67.8112
G1 X216.017 Y115.774 E67.8338
G1 X216.563 Y115.368 E67.85643
G1 X216.984 Y114.833 E67.87907
G1 X217.253 Y114.209 E67.90167
G1 X217.351 Y113.537 E67.92426
G1 X217.272 Y112.861 E67.94689
G1 X217.02 Y112.229 E67.96952
G1 X216.614 Y111.683 E67.99215
G1 X216.079 Y111.262 E68.0148
G1 X215.455 Y110.993 E68.0374
G1 X214.783 Y110.895 E68.05998
G1 X214.107 Y110.974 E68.08262
