;FLAVOR:Marlin
;TIME:28135
;Filament used: 17.1864m
;Layer height: 0.2
;MINX:43.25
;MINY:55
;MINZ:0.2
;MAXX:256.75
;MAXY:188.5
;MAXZ:16.6
;Generated with Cura_SteamEngine 4.13.1
M140 S50
M105
M190 S50
M104 S220
M105
M109 S220
M82 ;absolute extrusion mode
M201 X500.00 Y500.00 Z100.00 E5000.00 ;Setup machine max acceleration
M203 X500.00 Y500.00 Z10.00 E50.00 ;Setup machine max feedrate
M204 P500.00 R1000.00 T500.00 ;Setup Print/Retract/Travel acceleration
M205 X8.00 Y8.00 Z0.40 E5.00 ;Setup Jerk
M220 S100 ;Reset Feedrate
M221 S100 ;Reset Flowrate

G28 ;Home
G29 ; auto bed leveling

G92 E0 ;Reset Extruder
G1 Z2.0 F3000 ;Move Z Axis up
G1 X10.1 Y20 Z0.28 F5000.0 ;Move to start position
G1 X10.1 Y200.0 Z0.28 F1500.0 E15 ;Draw the first line
G1 X10.4 Y200.0 Z0.28 F5000.0 ;Move to side a little
G1 X10.4 Y20 Z0.28 F1500.0 E30 ;Draw the second line
G92 E0 ;Reset Extruder
G1 Z2.0 F3000 ;Move Z Axis up
G92 E0
G92 E0
G1 F1500 E-6.5
;LAYER_COUNT:83
;LAYER:0
M107
G0 F6000 X47.136 Y57.627 Z0.2
;TYPE:SKIRT
G1 F1500 E0
G1 F1200 X47.876 Y57.051 E0.03119
G1 X48.662 Y56.539 E0.06239
G1 X49.489 Y56.097 E0.09358
G1 X50.351 Y55.727 E0.12478
G1 X51.241 Y55.431 E0.15597
G1 X52.153 Y55.213 E0.18716
G1 X53.08 Y55.072 E0.21835
G1 X53.951 Y55.013 E0.24738
G1 X54.272 Y55.004 E0.25806
G1 X54.58 Y55 E0.26831
G1 X245.043 Y55 E6.60313
G1 X245.899 Y55.011 E6.63161
G1 X246.835 Y55.065 E6.66279
G1 X247.763 Y55.197 E6.69397
G1 X248.677 Y55.409 E6.72517
G1 X249.569 Y55.698 E6.75636
G1 X250.434 Y56.061 E6.78756
G1 X251.264 Y56.497 E6.81874
G1 X252.055 Y57.002 E6.84996
G1 X252.799 Y57.573 E6.88115
G1 X253.492 Y58.205 E6.91235
G1 X254.129 Y58.893 E6.94353
G1 X254.704 Y59.634 E6.97473
G1 X255.215 Y60.42 E7.00591
G1 X255.657 Y61.248 E7.03712
G1 X256.026 Y62.11 E7.06831
G1 X256.321 Y63 E7.0995
G1 X256.539 Y63.912 E7.13068
G1 X256.679 Y64.84 E7.1619
G1 X256.737 Y65.701 E7.1906
G1 X256.746 Y66.021 E7.20125
G1 X256.75 Y66.33 E7.21153
G1 X256.749 Y120.426 E9.01077
G1 X256.739 Y121.148 E9.03478
G1 X256.686 Y122.085 E9.066
G1 X256.553 Y123.013 E9.09718
G1 X256.342 Y123.927 E9.12838
G1 X256.054 Y124.819 E9.15955
G1 X255.691 Y125.684 E9.19075
G1 X255.255 Y126.515 E9.22197
G1 X254.751 Y127.305 E9.25313
G1 X254.181 Y128.05 E9.28433
G1 X253.684 Y128.605 E9.30911
G1 X251.757 Y130.617 E9.40177
G1 X250.048 Y132.509 E9.48657
G1 X248.432 Y134.401 E9.56933
G1 X246.848 Y136.366 E9.65328
G1 X245.322 Y138.372 E9.73711
G1 X243.867 Y140.404 E9.82023
G1 X242.444 Y142.513 E9.90485
G1 X241.104 Y144.626 E9.98807
G1 X239.813 Y146.793 E10.07197
G1 X238.598 Y148.97 E10.15489
G1 X237.42 Y151.232 E10.23971
G1 X236.325 Y153.485 E10.32303
G1 X235.292 Y155.776 E10.40662
G1 X234.309 Y158.125 E10.49131
G1 X233.415 Y160.457 E10.57438
G1 X232.579 Y162.826 E10.65793
G1 X231.811 Y165.22 E10.74155
G1 X231.112 Y167.628 E10.82495
G1 X230.478 Y170.069 E10.90883
G1 X229.904 Y172.559 E10.99382
G1 X229.415 Y175.016 E11.07714
G1 X228.995 Y177.47 E11.15995
G1 X228.89 Y178.2 E11.18448
G1 X228.732 Y179.203 E11.21825
G1 X228.547 Y180.122 E11.24943
G1 X228.284 Y181.022 E11.28062
G1 X227.945 Y181.897 E11.31183
G1 X227.533 Y182.739 E11.34301
G1 X227.051 Y183.544 E11.37421
G1 X226.502 Y184.304 E11.4054
G1 X225.89 Y185.015 E11.4366
G1 X225.22 Y185.671 E11.46779
G1 X224.497 Y186.268 E11.49897
G1 X223.725 Y186.801 E11.53017
G1 X222.91 Y187.266 E11.56138
G1 X222.059 Y187.66 E11.59257
G1 X221.178 Y187.981 E11.62376
G1 X220.272 Y188.225 E11.65497
G1 X219.349 Y188.391 E11.68616
G1 X218.174 Y188.487 E11.72537
G1 X217.853 Y188.496 E11.73605
G1 X217.545 Y188.5 E11.74629
G1 X81.924 Y188.499 E16.25707
G1 X81.227 Y188.489 E16.28025
G1 X80.291 Y188.435 E16.31144
G1 X79.362 Y188.302 E16.34265
G1 X78.449 Y188.091 E16.37382
G1 X77.556 Y187.802 E16.40503
G1 X76.692 Y187.439 E16.4362
G1 X75.862 Y187.003 E16.46739
G1 X75.071 Y186.498 E16.4986
G1 X74.327 Y185.927 E16.52979
G1 X73.634 Y185.295 E16.56099
G1 X72.997 Y184.606 E16.5922
G1 X72.421 Y183.866 E16.62339
G1 X71.911 Y183.079 E16.65458
G1 X71.469 Y182.252 E16.68577
G1 X71.1 Y181.39 E16.71695
G1 X70.805 Y180.5 E16.74814
G1 X70.587 Y179.588 E16.77933
G1 X70.498 Y179.059 E16.79717
G1 X70.317 Y177.803 E16.83938
G1 X69.912 Y175.237 E16.92578
G1 X69.449 Y172.757 E17.00969
G1 X68.917 Y170.297 E17.0934
G1 X68.324 Y167.885 E17.17601
G1 X67.646 Y165.431 E17.26069
G1 X66.9 Y163.001 E17.34523
G1 X66.099 Y160.633 E17.42838
G1 X65.228 Y158.276 E17.51195
G1 X64.279 Y155.92 E17.59643
G1 X63.284 Y153.637 E17.67926
G1 X62.21 Y151.351 E17.76327
G1 X61.085 Y149.125 E17.84623
G1 X59.875 Y146.886 E17.93087
G1 X58.622 Y144.719 E18.01413
G1 X57.3 Y142.575 E18.09791
G1 X55.899 Y140.437 E18.18292
G1 X54.481 Y138.405 E18.26534
G1 X52.993 Y136.394 E18.34854
G1 X51.409 Y134.376 E18.43387
G1 X49.825 Y132.472 E18.51625
G1 X48.135 Y130.553 E18.60129
G1 X46.217 Y128.496 E18.69484
G1 X46.11 Y128.378 E18.70014
G1 X45.51 Y127.657 E18.73133
G1 X44.974 Y126.888 E18.76251
G1 X44.506 Y126.075 E18.79371
G1 X44.108 Y125.226 E18.8249
G1 X43.784 Y124.346 E18.85609
G1 X43.536 Y123.441 E18.8873
G1 X43.366 Y122.519 E18.91848
G1 X43.263 Y121.299 E18.9592
G1 X43.254 Y120.98 E18.96982
G1 X43.25 Y120.67 E18.98013
G1 X43.251 Y66.525 E20.781
G1 X43.26 Y65.86 E20.80312
G1 X43.313 Y64.924 E20.8343
G1 X43.445 Y63.995 E20.86551
G1 X43.656 Y63.081 E20.89671
G1 X43.944 Y62.189 E20.92788
G1 X44.307 Y61.324 E20.95908
G1 X44.742 Y60.493 E20.99028
G1 X45.246 Y59.703 E21.02145
G1 X45.816 Y58.958 E21.05265
G1 X46.448 Y58.264 E21.08387
G1 X47.136 Y57.627 E21.11505
G0 F6000 X47.524 Y57.823
G1 F1200 X48.26 Y57.27 E21.14567
G1 X49.041 Y56.782 E21.1763
G1 X49.861 Y56.364 E21.20691
G1 X50.715 Y56.019 E21.23755
G1 X51.595 Y55.749 E21.26816
G1 X52.495 Y55.557 E21.29877
G1 X53.409 Y55.443 E21.32941
G1 X53.962 Y55.413 E21.34783
G1 X54.283 Y55.404 E21.35851
G1 X54.58 Y55.4 E21.36839
G1 X245.043 Y55.4 E27.70321
G1 X245.893 Y55.411 E27.73149
G1 X246.812 Y55.464 E27.7621
G1 X247.723 Y55.597 E27.79272
G1 X248.619 Y55.808 E27.82334
G1 X249.493 Y56.096 E27.85395
G1 X250.34 Y56.459 E27.8846
G1 X251.151 Y56.894 E27.91521
G1 X251.921 Y57.398 E27.94581
G1 X252.645 Y57.967 E27.97644
G1 X253.317 Y58.597 E28.00708
G1 X253.932 Y59.282 E28.0377
G1 X254.485 Y60.018 E28.06832
G1 X254.972 Y60.799 E28.09893
G1 X255.389 Y61.62 E28.12956
G1 X255.734 Y62.474 E28.16019
G1 X256.003 Y63.354 E28.1908
G1 X256.195 Y64.255 E28.22144
G1 X256.308 Y65.168 E28.25203
G1 X256.337 Y65.712 E28.27015
G1 X256.346 Y66.032 E28.2808
G1 X256.35 Y66.33 E28.29071
G1 X256.349 Y120.421 E30.08979
G1 X256.339 Y121.143 E30.1138
G1 X256.286 Y122.062 E30.14442
G1 X256.154 Y122.973 E30.17504
G1 X255.943 Y123.869 E30.20565
G1 X255.655 Y124.744 E30.23629
G1 X255.293 Y125.59 E30.2669
G1 X254.858 Y126.402 E30.29754
G1 X254.355 Y127.172 E30.32813
G1 X253.786 Y127.897 E30.35878
G1 X253.395 Y128.328 E30.37813
G1 X251.47 Y130.337 E30.47068
G1 X249.763 Y132.227 E30.55538
G1 X248.119 Y134.153 E30.6396
G1 X246.521 Y136.134 E30.72426
G1 X245.007 Y138.126 E30.80748
G1 X243.526 Y140.193 E30.89205
G1 X242.134 Y142.256 E30.97482
G1 X240.756 Y144.428 E31.06038
G1 X239.463 Y146.599 E31.14442
G1 X238.237 Y148.797 E31.22813
G1 X237.068 Y151.041 E31.31229
G1 X235.965 Y153.312 E31.39626
G1 X234.924 Y155.62 E31.48047
G1 X233.935 Y157.984 E31.5657
G1 X233.048 Y160.297 E31.64809
G1 X232.197 Y162.707 E31.7331
G1 X231.43 Y165.097 E31.81659
G1 X230.726 Y167.521 E31.90054
G1 X230.087 Y169.984 E31.98517
G1 X229.517 Y172.457 E32.06958
G1 X229.022 Y174.942 E32.15386
G1 X228.598 Y177.418 E32.23741
G1 X228.495 Y178.137 E32.26157
G1 X228.337 Y179.14 E32.29534
G1 X228.154 Y180.043 E32.32598
G1 X227.894 Y180.926 E32.3566
G1 X227.558 Y181.783 E32.38721
G1 X227.149 Y182.608 E32.41784
G1 X226.67 Y183.394 E32.44845
G1 X226.125 Y184.136 E32.47907
G1 X225.517 Y184.827 E32.50969
G1 X224.852 Y185.464 E32.54032
G1 X224.133 Y186.04 E32.57096
G1 X223.368 Y186.551 E32.60156
G1 X222.561 Y186.995 E32.63219
G1 X221.719 Y187.366 E32.66279
G1 X220.847 Y187.663 E32.69343
G1 X219.953 Y187.883 E32.72405
G1 X219.044 Y188.025 E32.75465
G1 X218.163 Y188.087 E32.78403
G1 X217.842 Y188.096 E32.79471
G1 X217.545 Y188.1 E32.80459
G1 X81.93 Y188.099 E37.31516
G1 X81.233 Y188.089 E37.33835
G1 X80.314 Y188.036 E37.36896
G1 X79.403 Y187.903 E37.39959
G1 X78.507 Y187.692 E37.4302
G1 X77.632 Y187.404 E37.46084
G1 X76.786 Y187.04 E37.49147
G1 X75.975 Y186.605 E37.52208
G1 X75.204 Y186.102 E37.5527
G1 X74.48 Y185.533 E37.58333
G1 X73.809 Y184.903 E37.61394
G1 X73.194 Y184.218 E37.64456
G1 X72.641 Y183.482 E37.67518
G1 X72.154 Y182.7 E37.70582
G1 X71.737 Y181.88 E37.73641
G1 X71.392 Y181.026 E37.76705
G1 X71.123 Y180.146 E37.79766
G1 X70.893 Y179.002 E37.83647
G1 X70.701 Y177.67 E37.88123
G1 X70.307 Y175.173 E37.9653
G1 X69.838 Y172.664 E38.0502
G1 X69.312 Y170.231 E38.13299
G1 X68.704 Y167.756 E38.21776
G1 X68.026 Y165.302 E38.30244
G1 X67.289 Y162.903 E38.38591
G1 X66.478 Y160.503 E38.47017
G1 X65.598 Y158.124 E38.55453
G1 X64.658 Y155.789 E38.63825
G1 X63.638 Y153.451 E38.72309
G1 X62.564 Y151.165 E38.8071
G1 X61.435 Y148.93 E38.89038
G1 X60.23 Y146.702 E38.97463
G1 X58.95 Y144.488 E39.05969
G1 X57.633 Y142.35 E39.1432
G1 X56.245 Y140.234 E39.22737
G1 X54.815 Y138.184 E39.31051
G1 X53.296 Y136.132 E39.39542
G1 X51.727 Y134.133 E39.47994
G1 X50.114 Y132.195 E39.56381
G1 X48.462 Y130.318 E39.64697
G1 X46.614 Y128.337 E39.73708
G1 X46.407 Y128.109 E39.74732
G1 X45.818 Y127.401 E39.77795
G1 X45.294 Y126.645 E39.80854
G1 X44.837 Y125.845 E39.83919
G1 X44.451 Y125.009 E39.86981
G1 X44.139 Y124.143 E39.90043
G1 X43.904 Y123.253 E39.93105
G1 X43.746 Y122.346 E39.96167
G1 X43.663 Y121.288 E39.99696
G1 X43.654 Y120.969 E40.00758
G1 X43.65 Y120.67 E40.01752
G1 X43.651 Y66.531 E41.8182
G1 X43.66 Y65.866 E41.84032
G1 X43.712 Y64.946 E41.87096
G1 X43.844 Y64.035 E41.90158
G1 X44.055 Y63.139 E41.9322
G1 X44.342 Y62.264 E41.96282
G1 X44.705 Y61.418 E41.99344
G1 X45.139 Y60.606 E42.02407
G1 X45.642 Y59.835 E42.05468
G1 X46.211 Y59.111 E42.08531
G1 X46.839 Y58.439 E42.1159
G1 X47.524 Y57.823 E42.14654
G0 F6000 X47.912 Y58.024
G1 F1200 X48.644 Y57.494 E42.1766
G1 X49.419 Y57.031 E42.20663
G1 X50.232 Y56.638 E42.23666
G1 X51.077 Y56.318 E42.26671
G1 X51.946 Y56.075 E42.29673
G1 X52.834 Y55.909 E42.32677
G1 X53.973 Y55.813 E42.36479
G1 X54.294 Y55.804 E42.37547
G1 X54.58 Y55.8 E42.38498
G1 X245.043 Y55.8 E48.71981
G1 X245.887 Y55.811 E48.74788
G1 X246.789 Y55.864 E48.77794
G1 X247.682 Y55.996 E48.80796
G1 X248.56 Y56.207 E48.83799
G1 X249.416 Y56.495 E48.86803
G1 X250.243 Y56.857 E48.89806
G1 X251.035 Y57.292 E48.92811
G1 X251.786 Y57.794 E48.95816
G1 X252.489 Y58.361 E48.9882
G1 X253.139 Y58.988 E49.01823
G1 X253.731 Y59.67 E49.04827
G1 X254.261 Y60.401 E49.0783
G1 X254.723 Y61.177 E49.10834
G1 X255.116 Y61.99 E49.13837
G1 X255.434 Y62.835 E49.1684
G1 X255.677 Y63.705 E49.19845
G1 X255.842 Y64.593 E49.22849
G1 X255.937 Y65.723 E49.2662
G1 X255.946 Y66.043 E49.27685
G1 X255.95 Y66.33 E49.2864
G1 X255.949 Y120.415 E51.08527
G1 X255.939 Y121.137 E51.10929
G1 X255.887 Y122.039 E51.13934
G1 X255.755 Y122.932 E51.16936
G1 X255.544 Y123.81 E51.1994
G1 X255.257 Y124.667 E51.22946
G1 X254.895 Y125.494 E51.25948
G1 X254.461 Y126.286 E51.28952
G1 X253.959 Y127.037 E51.31957
G1 X253.106 Y128.052 E51.36366
G1 X251.152 Y130.092 E51.45762
G1 X249.479 Y131.944 E51.54063
G1 X247.787 Y133.926 E51.6273
G1 X246.219 Y135.869 E51.71035
G1 X244.696 Y137.873 E51.79406
G1 X243.202 Y139.958 E51.87938
G1 X241.782 Y142.064 E51.96386
G1 X240.427 Y144.199 E52.04796
G1 X239.12 Y146.395 E52.13296
G1 X237.884 Y148.609 E52.21729
G1 X236.706 Y150.87 E52.30209
G1 X235.612 Y153.122 E52.38536
G1 X234.554 Y155.467 E52.47093
G1 X233.568 Y157.824 E52.5559
G1 X232.669 Y160.169 E52.63944
G1 X231.815 Y162.589 E52.72479
G1 X231.047 Y164.982 E52.80838
G1 X230.343 Y167.405 E52.8923
G1 X229.693 Y169.908 E52.97831
G1 X229.121 Y172.393 E53.06313
G1 X228.635 Y174.832 E53.14584
G1 X228.203 Y177.36 E53.23114
G1 X228.1 Y178.075 E53.25517
G1 X227.942 Y179.078 E53.28894
G1 X227.762 Y179.963 E53.31898
G1 X227.504 Y180.829 E53.34903
G1 X227.171 Y181.668 E53.37906
G1 X226.765 Y182.475 E53.4091
G1 X226.29 Y183.243 E53.43914
G1 X225.748 Y183.965 E53.46916
G1 X225.144 Y184.637 E53.49922
G1 X224.484 Y185.253 E53.52924
G1 X223.771 Y185.808 E53.5593
G1 X223.012 Y186.297 E53.58933
G1 X222.213 Y186.718 E53.61936
G1 X221.38 Y187.067 E53.6494
G1 X220.519 Y187.34 E53.67944
G1 X219.638 Y187.536 E53.70946
G1 X218.742 Y187.653 E53.73952
G1 X218.152 Y187.687 E53.75917
G1 X217.831 Y187.696 E53.76985
G1 X217.545 Y187.7 E53.77937
G1 X81.936 Y187.699 E58.28974
G1 X81.239 Y187.689 E58.31293
G1 X80.337 Y187.636 E58.34298
G1 X79.444 Y187.504 E58.373
G1 X78.566 Y187.293 E58.40304
G1 X77.71 Y187.005 E58.43307
G1 X76.882 Y186.642 E58.46314
G1 X76.091 Y186.208 E58.49315
G1 X75.34 Y185.706 E58.5232
G1 X74.637 Y185.139 E58.55324
G1 X73.987 Y184.512 E58.58327
G1 X73.395 Y183.83 E58.61331
G1 X72.865 Y183.099 E58.64334
G1 X72.403 Y182.323 E58.67338
G1 X72.01 Y181.51 E58.70342
G1 X71.692 Y180.665 E58.73344
G1 X71.449 Y179.795 E58.76349
G1 X71.289 Y178.945 E58.79226
G1 X71.097 Y177.613 E58.83702
G1 X70.701 Y175.108 E58.92137
G1 X70.23 Y172.584 E59.00677
G1 X69.696 Y170.115 E59.09078
G1 X69.101 Y167.692 E59.17377
G1 X68.41 Y165.193 E59.26
G1 X67.664 Y162.763 E59.34455
G1 X66.86 Y160.384 E59.42807
G1 X65.967 Y157.97 E59.51368
G1 X65.029 Y155.641 E59.59719
G1 X63.998 Y153.276 E59.683
G1 X62.922 Y150.987 E59.76712
G1 X61.796 Y148.757 E59.85021
G1 X60.571 Y146.491 E59.93589
G1 X59.295 Y144.284 E60.02068
G1 X57.975 Y142.143 E60.10433
G1 X56.58 Y140.015 E60.18896
G1 X55.132 Y137.939 E60.27315
G1 X53.617 Y135.893 E60.35782
G1 X52.053 Y133.9 E60.44208
G1 X50.423 Y131.941 E60.52685
G1 X48.739 Y130.028 E60.61161
G1 X46.81 Y127.959 E60.7057
G1 X46.703 Y127.841 E60.711
G1 X46.126 Y127.145 E60.74106
G1 X45.614 Y126.402 E60.77108
G1 X45.169 Y125.616 E60.80112
G1 X44.795 Y124.794 E60.83115
G1 X44.496 Y123.942 E60.86119
G1 X44.273 Y123.067 E60.89122
G1 X44.128 Y122.175 E60.92128
G1 X44.063 Y121.277 E60.95122
G1 X44.054 Y120.958 E60.96184
G1 X44.05 Y120.67 E60.97142
G1 X44.051 Y66.536 E62.77192
G1 X44.06 Y65.871 E62.79404
G1 X44.112 Y64.969 E62.82409
G1 X44.244 Y64.076 E62.85412
G1 X44.454 Y63.198 E62.88414
G1 X44.741 Y62.341 E62.9142
G1 X45.103 Y61.514 E62.94423
G1 X45.536 Y60.722 E62.97425
G1 X46.038 Y59.971 E63.00429
G1 X46.605 Y59.267 E63.03436
G1 X47.231 Y58.617 E63.06437
G1 X47.912 Y58.024 E63.09441
G1 F1500 E56.59441
;MESH:Kleine kamer Radiator fan slave extension module 03.stl
G0 F6000 X60.867 Y72.504
G0 X59.889 Y71.411
G0 X59.412 Y73.366
G0 X59.457 Y73.975
G0 X59.658 Y74.552
G0 X60.002 Y75.058
G0 X60.465 Y75.458
G0 X61.015 Y75.724
G0 X61.501 Y75.815
G0 X62.921 Y75.828
;TYPE:WALL-INNER
G1 F1500 E63.09441
G1 F1200 X63.483 Y75.445 E63.11703
G1 X63.928 Y74.931 E63.13964
G1 X64.224 Y74.317 E63.16231
G1 X64.351 Y73.649 E63.18493
G1 X64.3 Y72.971 E63.20754
G1 X64.078 Y72.329 E63.23013
G1 X63.695 Y71.767 E63.25275
G1 X63.181 Y71.322 E63.27537
G1 X62.567 Y71.026 E63.29804
G1 X61.899 Y70.899 E63.32065
G1 X61.221 Y70.95 E63.34327
G1 X60.579 Y71.172 E63.36586
G1 X60.017 Y71.555 E63.38848
G1 X59.572 Y72.069 E63.41109
G1 X59.276 Y72.683 E63.43377
G1 X59.149 Y73.351 E63.45638
G1 X59.2 Y74.029 E63.479
G1 X59.422 Y74.671 E63.50159
G1 X59.805 Y75.233 E63.52421
G1 X60.319 Y75.678 E63.54682
G1 X60.933 Y75.974 E63.56949
G1 X61.601 Y76.101 E63.59211
G1 X62.279 Y76.05 E63.61472
G1 X62.921 Y75.828 E63.63732
G0 F6000 X62.74 Y75.467
;TYPE:WALL-OUTER
G1 F1200 X63.215 Y75.144 E63.65642
G1 X63.591 Y74.709 E63.67554
G1 X63.841 Y74.191 E63.69468
G1 X63.948 Y73.626 E63.7138
G1 X63.905 Y73.053 E63.73291
G1 X63.717 Y72.51 E63.75202
G1 X63.394 Y72.035 E63.77113
G1 X62.959 Y71.659 E63.79025
G1 X62.441 Y71.409 E63.80938
G1 X61.876 Y71.302 E63.82851
G1 X61.303 Y71.345 E63.84762
G1 X60.76 Y71.533 E63.86673
G1 X60.285 Y71.856 E63.88584
G1 X59.909 Y72.291 E63.90496
G1 X59.659 Y72.809 E63.92409
G1 X59.552 Y73.374 E63.94322
G1 X59.595 Y73.947 E63.96233
G1 X59.783 Y74.49 E63.98144
G1 X60.106 Y74.965 E64.00055
G1 X60.541 Y75.341 E64.01967
G1 X61.059 Y75.591 E64.0388
G1 X61.624 Y75.698 E64.05793
